X:1
T:James Gibb editions
T:Laudate Dominum - Hassler
T:#
%%score [ 1 2 3 4 ]
L:1/8
Q:1/4=96
M:4/4
K:E
V:1 treble nm="Soprano" snm="S"
V:2 treble nm="Alto" snm="A"
V:3 treble-8 nm="Tenor" snm="T"
V:4 bass nm="Bass" snm="B"
V:1
"^Hans Leo Hassler\n(1564-1612)""^Laudate Dominum" z8 | c4 c4 | F2 (c2- cBcd | e2) e2 c2 F2 | %4
w: |Lau- da-|te Do\- * * * *|* mi- num o-|
 A2 (c2- cB A2) | G2 (A2- AGAB | c2) c2 c4 | c4 z4 | z4 c4 | c4 F2 (c2- | cBcd e2) e2 | %11
w: mnes gen\- * * *|tes, o\- * * * *|* mnes gen-|tes,|lau-|da- te Do\-|* * * * * mi-|
 c2 F2 c2 (d2- | dc c4 ^B2) | c8 | z2 f2 (f/e/f) (e/d/e) |[M:4/4] d4 c4 | z2 c2 (c/B/c) (B/A/B) | %17
w: num o- mnes gen\-||tes;|Lau- da\- * * te * *|e- um,|lau- da\- * * te * *|
 A2 F2 z4 | z2 f2 (f/e/f) (e/d/e) | d4 c2 cd | e3 e B4 | z2 de (f3 e/d/ | cBcd ec f2- | %23
w: e- um,|lau- da\- * * te * *|e- um o- mnes|po- pu- li,|o- mnes po\- * *||
 f2 ^e2 f2 c2- | cc c2 c2 c2 | (BABc =dc c2- | c2) B2 c2 AB | c!courtesy!^dec e3 =d/c/ | %28
w: * pu- li. Quo\-|* ni- am con- fir-|ma\- * * * * * *|* ta est su\- *||
 B2 B2 c2 B2 | B3 c B>B G2 | G4 G4 | z8 | z8 | z8 | z8 | z2 G^A BcdB | e3 d/c/ B2) e2 | %37
w: * per nos mi-|se- ri- cor- di- a|e- jus,|||||su\- * * * * *|* * * * per|
 c2 (=d2- dc c2- | c2 B2 c2 c2 | ^B3 c ^AB G2 | G4 G4 ||[M:3/4][Q:1/4=144] c2 c3 c | B2 =d3 d || %43
w: nos. su\- * * *|* per nos mi-|se- ri- cor- di- a|e- jus:|Et ve- ri-|tas Do- mi-|
[M:4/4][Q:1/4=144][Q:1/4=96][Q:1/4=144][Q:1/4=144][Q:1/4=144] c2 f4 e2 | c2 d4 c2- | c2 ^B2) c4 | %46
w: ni ma- net|in ae- ter\-|* * num,|
 z8 | z8 ||[M:3/4][Q:1/4=96][Q:1/4=144][Q:1/4=96][Q:1/4=96][Q:1/4=96] c2 c3 c | c2 =d3 d || %50
w: ||et ve- ri-|tas Do- mi-|
[M:4/4][Q:1/4=96] c2 f4 e2 | c2 d4 (c2- | c2 ^B2) c4 | z8 | z4 z2[Q:1/4=95] =d2- | %55
w: ni, ma- net|in ae- ter\-|* * num,||ma\-|
[Q:1/4=93] d2[Q:1/4=91] c2[Q:1/4=90] A2[Q:1/4=88] c2 |[Q:1/4=84] B8 |[Q:1/4=82] !fermata!^A8 |] %58
w: * net in ae-|ter-|num.|
V:2
 F4 F4 | C2 (F2- FEFG | A2) A2 F4 | z2 C2 F2 (A2- | AGFE F4) | ^E2 F2 F4- | F2 E2 A2 A2 | G4 A4 | %8
w: Lau- da-|te Do\- * * * *|* mi- num|o- mnes gen\-||tes, lau- da\-|* te Do- mi-|num o-|
 F2 (A4 GF | G2) C2 (A3 G/F/ | E2 A2 G4 | A4 E2 A2 | G8 | ^E2 A2 (A/G/A) G/F/G) | F2 D2 z2 c2 | %15
w: mnes gen\- * *|* tes, o\- * *|* mnes gen-|tes, o- mnes|gen-|tes; Lau- da\- * * te * *|e- um, lau-|
[M:4/4] (c/B/c) (B/A/B) A4 | G8 | z2 A2 (A/G/A) (G/F/G) | F2 D2 z4 | z2 B2 (B/A/B) (A/G/A) | %20
w: da\- * * te * * e-|um,|lau- da\- * * te * *|e- um,|lau- da\- * * te * *|
 G2 E2 z2 GA | B3 B F4 | z2 C2 A2 (GF | G2 G2 F2 A2- | AA A2 G2 A2 | (F!courtesy!=EFG AGEG | %26
w: e- um o- mnes|po- pu- li,|o- mnes po\- *|* pu- li. Quo\-|* ni- am con- fir-|ma\- * * * * * * *|
 F2) F2 G2 cB | AG/F/ E2- EA, A2-) | A2 G2 A2 G2 | F3 F F>F E2 | D4 C2 G2- | GG G2 G2 G2 | %32
w: * ta est su\- *||* per nos mi-|se- ri- cor- di- a|e- jus, quo\-|* ni- am con- fir-|
 (FEFG AG G2- | G2 F2 G2 (EF | GABG c2) A2 | G2 B^A G2) G2 | G2 (EF GABG) | A6 A2 | (F3 G A2) G2 | %39
w: ma\- * * * * * *|* ta est su\- *|* * * * * per|nos, su\- * * per|nos, su\- * * * * *|* per|nos * * mi-|
 G3 G FF !courtesy!=E2 | D4 ^E4 ||[M:3/4] !courtesy!=A2 A3 A | G2 A3 B ||[M:4/4] ^A4 z2 G2 | %44
w: se- ri- cor- di- a|e- jus:|Et ve- ri-|tas Do- mi-|ni ma-|
 E2 F4 C2 | D4 C2 A2 | F2 G2- GF (F2- | F2 ^E2) F4 ||[M:3/4] A2 G3 G | A2 A3 B || %50
w: net in ae-|ter- num, ma-|net in * ae- ter\-|* * num,|et ve- ri-|tas Do- mi-|
[M:4/4] ^A2 z2 z2 G2 | E2 F4 C2 | D4 C2 A2 | F2 G2- GF (F2- | F2 ^E2) F2 =DC | B,2 A,2 (C3 F | %56
w: ni, ma-|net in ae-|ter- num, ma-|net in * ae- ter\-|* * num, ma- net|in ae- ter\- *|
 =D8) | !fermata!C8 |] %58
w: |num.|
V:3
 z8 | z8 | z8 | z8 | z8 | c4 c4 | F2 (c2- cBcd | e2) e2 c2 F2 | A2 (c2- cB A2) | G2 (A2- AGAB) | %10
w: |||||Lau- da-|te Do\- * * * *|* mi- num o-|mnes gen\- * * *|tes, o\- * * * *|
 c2 c2 c4 | c4 z2 f2 | (f/e/f) (e/d/e) d4 | c2 c2 A2 c2- | c2 ^B2 c4 | %15
w: * mnes gen-|tes; Lau-|da\- * * te * * e-|um, o- mnes po\-|* pu- li,|
[M:4/4][K:treble-8] z4 z2 f2 | (f/e/f) (e/d/e) d4 | c4 z2 c2 | (c/B/c) (B/A/B) (AG/F/ G>A | %19
w: lau-|da\- * * te * * e-|um, lau-|da\- * * te * * e\- * * * *|
 B2 F2 z2 AB | c3 c G4 | z2 Bc d2 B2 | (^A3 B c4- | c4 z2 f2- | ff f2 ^e2 f2 | =dcde fece | %26
w: * um o- mnes|po- pu- li,|o- mnes po- pu-|li. * *|* Quo\-|* ni- am con- fir-|ma\- * * * * * * *|
 =d2) d2 c2 FG | ABcA c3 B/A/ | e2"^Io son fenice - Vecchi" e2 A2 e2 | d3 c d>d B c- | %30
w: * ta est su\- *||* per nos, mi-|se- ri- cor- di- a e\-|
 c^B/^A/ B2) c2 e2- | ee e2 d2 e2 | (c!courtesy!=Bcd edBd | c2 c2 d2 (gf | ed/c/ Be c2) d2 | %35
w: * * * * jus, quo\-|* ni- am con- fir-|ma\- * * * * * * *|* ta est su\- *|* * * * * * per|
 e2 EF G^ABG | c3 B/!courtesy!=A/ G2) E2 | F2 FG ABcA | =d2 d2 c2 e2 | !courtesy!^d3 G cdB (c- | %40
w: nos, su\- * * * * *|* * * * per|nos. su\- * * * * *|* per nos mi-|se- ri- cor- di- a e\-|
 c^B/^A/ B2) c4 ||[M:3/4] e2 e3 e | e2 f3 f ||[M:4/4][K:treble-8] f4 c4- | c2 B2 F2 A2 | G4 c2 c2 | %46
w: * * * * jus:|Et ve- ri-|tas Do- mi-|ni ma\-|* net in ae-|ter- num, ma-|
 A2 B4 F2 | G4 F4 ||[M:3/4][K:treble-8] f2 ^e3 e | f2 f3 f ||[M:4/4] f4 c4- | c2 B2 F2 A2 | %52
w: net in ae-|ter- num,|et ve- ri-|tas Do- mi-|ni, ma\-|* net in ae-|
 G4 c2 c2 | A2 B4 F2 | G4 F4- | F8 | F8 | !fermata!F8 |] %58
w: ter- num, ma-|net in ae-|ter- num.||||
V:4
 z8 | z8 | z8 | z8 | F,4 F,4 | C,2 (F,2- F,!courtesy!=E,F,G, | A,2) A,2 F,4 | z2 C,2 F,2 (A,2- | %8
w: ||||Lau- da-|te Do\- * * * *|* mi- num|o- mnes gen\-|
 A,G,F,E, F,4) | ^E,2 F,4 F,2 | A,2 F,2 z2 C,2 | F,2 (A,2- A,G, F,2) | G,8 | %13
w: |tes, o- mnes|gen- tes, o-|mnes gen\- * * *|tes,|
 z2 F,2 (F,/E,/F,) (E,/D,/E,) | D,4 C,2 E,2 |[M:4/4] F,2 G,2 (A,3 B, | C4) G,4 | %17
w: Lau- da\- * * te * *|e- um, lau-|da- te e\- *|* um,|
 z2 F,2 (F,/E,/F,) (E,/D,/E,) | D,4 C,4 | z2 D,E, F,3 F, | C,4 z2 E,F, | G,3 G, D,2 D,E, | %22
w: lau- da\- * * te * *|e- um,|o- mnes po- pu-|li, o- mnes|po- pu- li, o- mnes|
 (F,3 E,/D,/ C,4- | C,2 C,2 F,4 | z8 | z8 | z8 | z8 | z4 z2 E,2 | B,3 ^A, B,>B, E,2 | G,4 C,2 C2- | %31
w: po\- * * *|* pu- li,|||||mi-|se- ri- cor- di- a|e- jus, quo\-|
 CC C2 ^B,2 C2 | A,G,A,!courtesy!=B, CB,G,B, | A,2 A,2 G,2 (C,D, | E,F,G,E, A,2) F,2 | E,4 z4 | %36
w: * ni- am con- fir-|ma\- * * * * * * *|* ta est su\- *|* * * * * per|nos,|
 z2 C,D, E,F,G,E, | A,3 G, F,4) | B,,4 F,2 C,2 | G,3 ^E, F,D, =E,2 | G,4 C,4 || %41
w: su\- * * * * *||per nos mi-|se- ri- cor- di- a|e- jus:|
[M:3/4] !courtesy!=A,2 A,3 A, | E,2 =D,3 B,, ||[M:4/4] F,4 z4 | z8 | z4 z2 F,2- | %46
w: Et ve- ri-|tas Do- mi-|ni||ma\-|
 F,2 E,2 B,,2 =D,2 | C,4 F,4 ||[M:3/4] F,2 C,3 C, | F,2 =D,3 B,, ||[M:4/4] F,4 z4 | z8 | %52
w: * net in ae-|ter- num,|et ve- ri-|tas Do- mi-|ni,||
 z4 z2 F,2- | F,2 E,2 B,,2 =D,2 | C,4 F,2 (B,,C, | =D,E,F,G, A,2) A,,2 | B,,8 | !fermata!F,8 |] %58
w: ma\-|* net in ae-|ter- num, in *|* * * * * ae-|ter-|num.|

